X:1
T:The Bonnie Black Hare
M:3/4
L:1/4
K:D
D/2-F/2| A Ad/2-c/2| B A F3/4 D/4| E D D| D2 F3/4 E/4| EE/2-F/2G/2-A/2|\
 B A A| A A B| A2 A| A F A| d2 e3/4 d/4| d A F| E2 D| D3/4 D/4 F A|\
 B- A F| E D D| D2||
